X:298
T: My Own Heart's Delight
N: O'Farrell's Pocket Companion v.3 (Sky ed. p.133)
N: "Irish"
M: 3/4
L: 1/8
R: waltz
Q: 240
K: G
GE| D4E2| G4G2| B4 AG|G2 A2 E2|
e4 dc| B2 d2 G2| g4 f2| e4 ag|
f4 eB| d3-d :|
d2| d2e2f2| g2d2B2| g3a g2| f4 ed| e2B2d2|
e3 def| e2B2d2| e3 def| g3 fed| c2B2A2|
B2 E2F2|G3-G :|
